X: 29598
T: Norrgimma
R: barndance
M: 4/4
K: Gmajor
B2 d2 G2 AB|c2 e2 A3 g|f2 ga d2 ef|.g2 gf (3efe d2|
B2 d2 G2 AB|c2 e2 A3 g|f2 ga d2 ef|g2 b2 g2:|
d2 Bd g2 B2|cBcd .e2 e2|D2 FA d2 F2|GABc d2 Bc|
d2 Bd g2 B2|cBcd .e2 e2|D2 FA dcBA|G2 g2 g2:|

